svgs/sharp-solid/hand-holding-magic.svg

<svg xmlns="http://www.w3.org/2000/svg" viewBox="0 0 576 512"><!--! Font Awesome Pro 6.6.0 by @fontawesome - https://fontawesome.com License - https://fontawesome.com/license (Commercial License) Copyright 2024 Fonticons, Inc. --><path d="M192 80c0-8.8 7.2-16 16-16l112 0c35.3 0 64 28.7 64 64s-28.7 64-64 64l-64 0-32 0 0 32 0 32 0 32 64 0 0-32 32 0c70.7 0 128-57.3 128-128S390.7 0 320 0L208 0c-44.2 0-80 35.8-80 80s35.8 80 80 80l80 0 32 0 0-64-32 0-80 0c-8.8 0-16-7.2-16-16zM140 327L68.8 384 0 384 0 512l32 0 192 0 160 0 12.4 0 10.2-7 128-88 33-22.7-45.3-65.9-33 22.7-94.5 65L256 416l0-32 32 0 64 0 32 0 0-64-32 0-64 0-64 0-64 0-11.2 0-8.8 7z"/></svg>

<svg xmlns="http://www.w3.org/2000/svg" viewBox="0 0 576 512"><!--! Font Awesome Pro 6.4.0 by @fontawesome - https://fontawesome.com License - https://fontawesome.com/license (Commercial License) Copyright 2023 Fonticons, Inc. --><path d="M192 80c0-8.8 7.2-16 16-16H320c35.3 0 64 28.7 64 64s-28.7 64-64 64H256 224v32 32 32h64V256h32c70.7 0 128-57.3 128-128S390.7 0 320 0H208c-44.2 0-80 35.8-80 80s35.8 80 80 80h80 32V96H288 208c-8.8 0-16-7.2-16-16zM140 327L68.8 384H0V512H32 224 384h12.4l10.2-7 128-88 33-22.7-45.3-65.9-33 22.7-94.5 65H256V384h32 64 32V320H352 288 224 160 148.8l-8.8 7z"/></svg>
